X: 1707
T: Mick Pilley's 3rd Schottische
B: australian traditional tunes wiki
M:4/4
L:1/8
R: Barn Dance
Q: 1/4=100
K:G
V:1 
B>A|"G"G>G B>d g2e>g|"D7"(3fed c>BA2-A>B|A2c>e f2f2|"G"(3fed G>Bd2d>B|
"G"G>G B>d g2e>g|"D7"(3fed c>BA2-A>g|f2f2f>e (3def|"G"g2g2g2(3def|
"G"g2g2g>f e>g|"D7"f2f2f2A>B|"C"c2c2c>e d>c|"G" B2B2B2-B>e|
"G"g2g2g>f e>g|"D7"f2f2f2f>g|a>f d>f a>f (3def|"G"g2g2g2|]
% abcbook-tune_id 6342d53a9559c2354d289a3b


% abcbook-boost 0
% abcbook-tablature 
% abcbook-transpose 
% abcbook-lastupdated 1665324379090
% abcbook-soundfonts 
% abcbook-repeats 1
% NFF Book 2015

